X: 3065
T: The SOURCE OF SPEY
Q:"Strathspey."
R: Strathspey.
%R:strathspey
B: James Kerr "Merry Melodies" v.3 p.9 #65
Z: 2016 John Chambers <jc:trillian.mit.edu>
M: C
L: 1/8
K: Em
uB |\
vG<uE vE>uF G>A B<e | d<B A<B G>A B<e |\
G<E E>F G>A B<e | d<B B>G A2-A :|
|: B |\
e>fg>e d>eB>e | d>Bg>e d>eB>g |\
d>eg>e d>eB>e | d<B B>G A2A :|

%%sep 1 1 500
%%sep 1 1 500

